X:161
M:9/8
L:1/8
K:C Minor
g/>f/|e2 d/c/ c>BG BFB,|ecc cGc e2g|fdB bag fdB/c/4d/4|e>dc Gc=B c2:|
E/D/|Cce Cce BFB,|Cce cGc e2g|e<ge d<bg fdB/c/4d/4|e>dc Gc=B c2 E/D/|

